X:1
T: Argyll's Bowling Green
C:
R:Reel
I:speed 232
Q:232
K:C
M:4/4
L:1/8
|:E|C2c2 cd ed|cB cA GF ED|C2c2 cd ec|cA GE D3E|
C2c2 cd ed|cd cA GF ED|C2c2 cd ec|cA GE D3c|
GE cE GE EA|GE cG E3A|GE cE GE EF|GA GE D3a|
ge c'e ge ef|ge c'g e3a|ge c'e ge ed|ga ge d3:|
